icons/icn_link.svg

<svg width="24" xmlns="http://www.w3.org/2000/svg" height="24" id="screenshot-915d2400-ada3-801c-8006-87e6ca170475" viewBox="0 0 24 24" xmlns:xlink="http://www.w3.org/1999/xlink" fill="none" version="1.1"><g id="shape-915d2400-ada3-801c-8006-87e6ca170475"><g class="frame-container-wrapper"><g class="frame-container-blur"><g class="frame-container-shadows"><g fill="none"><g class="fills" id="fills-915d2400-ada3-801c-8006-87e6ca170475"><rect rx="0" ry="0" x="0" y="0" width="24" height="24.000000000000455" transform="matrix(1, 0, 0, 1, 0, 0)" class="frame-background"/></g><g class="frame-children"><g id="shape-915d2400-ada3-801c-8006-87e6d3a59b94" width="24" height="24" version="1.1" rx="0" ry="0" style="fill: rgb(0, 0, 0);"><g id="shape-915d2400-ada3-801c-8006-87e6d3a914b0" style="opacity: 1;"><g class="fills" id="fills-915d2400-ada3-801c-8006-87e6d3a914b0"><path d="M11.441740989685059,6.9995269775390625C9.562346458435059,6.9995269775390625,8.024260520935059,8.544570922851562,8.024260520935059,10.424575805664062L8.024260520935059,18.573745727539062C8.024260520935059,20.453628540039062,9.562346458435059,21.998794555664062,11.441740989685059,21.998794555664062L18.601652145385742,21.998794555664062C20.481290817260742,21.998794555664062,22.019376754760742,20.453628540039062,22.019376754760742,18.573745727539062L22.019376754760742,10.424575805664062C22.019376754760742,8.544570922851562,20.481290817260742,6.9995269775390625,18.601652145385742,6.9995269775390625L18.018644332885742,6.9995269775390625L17.074064254760742,6.9995269775390625L17.074064254760742,8.889175415039062L18.018644332885742,8.889175415039062L18.601652145385742,8.889175415039062C19.466398239135742,8.889175415039062,20.129728317260742,9.560440063476562,20.129728317260742,10.424575805664062L20.129728317260742,18.573745727539062C20.129728317260742,19.437881469726562,19.466398239135742,20.109146118164062,18.601652145385742,20.109146118164062L11.441740989685059,20.109146118164062C10.578215599060059,20.109146118164062,9.913664817810059,19.437881469726562,9.913664817810059,18.573745727539062L9.913664817810059,10.424575805664062C9.913664817810059,9.560440063476562,10.578215599060059,8.889175415039062,11.441740989685059,8.889175415039062L12.024992942810059,8.889175415039062L12.969817161560059,8.889175415039062L12.969817161560059,6.9995269775390625L12.024992942810059,6.9995269775390625Z" style="display: inline; stroke-linecap: square; stroke-linejoin: round; fill: rgb(0, 0, 0); fill-opacity: 1;"/></g></g><g id="shape-915d2400-ada3-801c-8006-87e6d3a95733" style="opacity: 1;"><g class="fills" id="fills-915d2400-ada3-801c-8006-87e6d3a95733"><path d="M5.448332786560059,2.0096590518951416C3.5686941146850586,2.0096590518951416,2.0230398178100586,3.5478670597076416,2.0230398178100586,5.4272613525390625L2.0230398178100586,13.576431274414062C2.0230398178100586,15.456558227539062,3.5686941146850586,17.001480102539062,5.448332786560059,17.001480102539062L6.001555442810059,17.001480102539062L6.946623802185059,17.001480102539062L6.946623802185059,15.104507446289062L6.001555442810059,15.104507446289062L5.448332786560059,15.104507446289062C4.583586692810059,15.104507446289062,3.9126882553100586,14.441055297851562,3.9126882553100586,13.576431274414062L3.9126882553100586,5.4272613525390625C3.9126882553100586,4.5631256103515625,4.583586692810059,3.8993074893951416,5.448332786560059,3.8993074893951416L12.600676536560059,3.8993074893951416C13.465422630310059,3.8993074893951416,14.128508567810059,4.5631256103515625,14.128508567810059,5.4272613525390625L14.128508567810059,13.576431274414062C14.128508567810059,14.441055297851562,13.465422630310059,15.104507446289062,12.600676536560059,15.104507446289062L12.047209739685059,15.104507446289062L11.102141380310059,15.104507446289062L11.102141380310059,17.001480102539062L12.047209739685059,17.001480102539062L12.600676536560059,17.001480102539062C14.480071067810059,17.001480102539062,16.018400192260742,15.456558227539062,16.018400192260742,13.576431274414062L16.018400192260742,5.4272613525390625C16.018400192260742,3.5478670597076416,14.480071067810059,2.0096590518951416,12.600676536560059,2.0096590518951416Z" style="display: inline; stroke-linecap: square; stroke-linejoin: round; fill: rgb(0, 0, 0); fill-opacity: 1;"/></g></g></g></g></g></g></g></g></g></svg>

<svg fill="none" viewBox="0 0 24 24"><g class="frame-container-wrapper"><g class="frame-container-blur"><g class="frame-container-shadows"><g class="fills"><rect width="24" height="24" class="frame-background" rx="0" ry="0"/></g><g fill="#000" class="frame-children"><path d="M11.4417 6.9995c-1.8794 0-3.4174 1.545-3.4174 3.425v8.1492c0 1.88 1.538 3.425 3.4174 3.425h7.16c1.8796 0 3.4177-1.545 3.4177-3.425v-8.1491c0-1.88-1.5381-3.425-3.4177-3.425H17.074v1.8896H18.6016c.8648 0 1.5281.6712 1.5281 1.5354v8.1491c0 .8642-.6633 1.5354-1.528 1.5354h-7.16c-.8635 0-1.528-.6712-1.528-1.5354v-8.1491c0-.8642.6645-1.5354 1.528-1.5354h1.5281V6.9995h-.9448Z" class="fills"/><path d="M5.4483 2.0097c-1.8796 0-3.4253 1.5382-3.4253 3.4176v8.1491c0 1.8802 1.5457 3.425 3.4253 3.425h1.4983v-1.8969H5.4483c-.8647 0-1.5356-.6634-1.5356-1.528V5.4272c0-.8642.6709-1.528 1.5356-1.528h7.1524c.8647 0 1.5278.6638 1.5278 1.528v8.1491c0 .8647-.663 1.5281-1.5278 1.5281h-1.4985v1.897h1.4985c1.8794 0 3.4177-1.545 3.4177-3.425V5.4272c0-1.8794-1.5383-3.4176-3.4177-3.4176Z" class="fills"/></g></g></g></g></svg>
